X: 16
T: O Sole Mio  [D]
C: music: Eduardo di Capua 1898
%C: words: Giovanni Capurro
N: Words by G. Capurro
Z: 1999 John Chambers <jc@trillian.mit.edu>
M: 4/4
L: 1/4
K: D
"A"|: "D"zA GF | E2 D2 | DE FD | "Em"C2 B,2 | zC DE |
"A7"CB, B,2- | B,C DE | "D"(B,A,) A,2 | "D"zA GF | E2 D2 |
DE FD | "Em"{D}C2 B,2 | zG FE | "D"AF ED | "A7"E3 F | "D"E2{FE}D2 "B"|]|
zHd yHdyHcy | "D"(cA) A2 | zc cB | "Em"{B}G4 | zc cB | "Em"{B}G2 G2 | "A7"zE FG | "D"A4 |
z2 z A | "Gm"_B2 B2 | zG d>_B | "D"A2 A2 | zF ED | "A7"A4 | zF {EF}E>C | "D"D4 :|
y4 y4 y4 y4 y4 y4 |["Coda" zF ED | "A7"A2 A2 | zA [fA]>[eG] | "D"[d4F4] |]

%%sep 1 1 500
%%sep 1 1 500


